assets/images/share/vk.svg

<svg width="45" height="45" viewBox="0 0 45 45" fill="none" xmlns="http://www.w3.org/2000/svg">
<path d="M22.5 45C34.9264 45 45 34.9264 45 22.5C45 10.0736 34.9264 0 22.5 0C10.0736 0 0 10.0736 0 22.5C0 34.9264 10.0736 45 22.5 45Z" fill="#4D76A1"/>
<path fill-rule="evenodd" clip-rule="evenodd" d="M21.6502 32.3683H23.4161C23.4161 32.3683 23.9496 32.3097 24.2219 32.0161C24.4726 31.7466 24.4646 31.2404 24.4646 31.2404C24.4646 31.2404 24.4301 28.8708 25.5298 28.5219C26.614 28.1781 28.0061 30.8121 29.4817 31.8248C30.5975 32.5913 31.4454 32.4232 31.4454 32.4232L35.3909 32.3683C35.3909 32.3683 37.4549 32.2411 36.4762 30.6183C36.396 30.4856 35.9063 29.4179 33.5427 27.224C31.0688 24.9278 31.4001 25.2992 34.3802 21.3272C36.1951 18.9083 36.9206 17.4315 36.694 16.799C36.4778 16.1966 35.143 16.3558 35.143 16.3558L30.7006 16.3835C30.7006 16.3835 30.3713 16.3385 30.1271 16.4845C29.8884 16.6277 29.7348 16.9614 29.7348 16.9614C29.7348 16.9614 29.0317 18.8333 28.094 20.4252C26.1158 23.7843 25.3249 23.9615 25.0016 23.753C24.2496 23.2669 24.4373 21.8001 24.4373 20.7581C24.4373 17.5029 24.931 16.1456 23.4759 15.7943C22.993 15.6776 22.6376 15.6006 21.4027 15.5881C19.8176 15.5717 18.476 15.5929 17.7163 15.9651C17.211 16.2126 16.8211 16.7641 17.0586 16.7958C17.3521 16.8351 18.0171 16.9751 18.3697 17.4552C18.8249 18.0744 18.8089 19.4654 18.8089 19.4654C18.8089 19.4654 19.0704 23.2974 18.198 23.7734C17.5992 24.0999 16.7778 23.4333 15.0142 20.3859C14.1106 18.8249 13.4283 17.0994 13.4283 17.0994C13.4283 17.0994 13.2968 16.7769 13.0622 16.6045C12.7774 16.3955 12.3795 16.3289 12.3795 16.3289L8.1581 16.3566C8.1581 16.3566 7.52439 16.3742 7.29176 16.6498C7.0848 16.8949 7.27532 17.4018 7.27532 17.4018C7.27532 17.4018 10.5802 25.1339 14.3224 29.0304C17.7536 32.6029 21.6502 32.3683 21.6502 32.3683Z" fill="white"/>
</svg>

<svg width="45" height="45" fill="none" xmlns="http://www.w3.org/2000/svg"><path d="M22.5 45C34.926 45 45 34.926 45 22.5S34.926 0 22.5 0 0 10.074 0 22.5 10.074 45 22.5 45Z" fill="#4D76A1"/><path fill-rule="evenodd" clip-rule="evenodd" d="M21.65 32.368h1.766s.534-.058.806-.352c.25-.27.243-.776.243-.776s-.035-2.37 1.065-2.718c1.084-.344 2.476 2.29 3.952 3.303 1.116.766 1.963.598 1.963.598l3.946-.055s2.064-.127 1.085-1.75c-.08-.132-.57-1.2-2.933-3.394-2.474-2.296-2.143-1.925.837-5.897 1.815-2.419 2.54-3.896 2.314-4.528-.216-.602-1.551-.443-1.551-.443l-4.442.027s-.33-.044-.574.102c-.239.143-.392.476-.392.476s-.703 1.872-1.641 3.464c-1.978 3.36-2.77 3.537-3.092 3.328-.752-.486-.565-1.953-.565-2.995 0-3.255.494-4.612-.961-4.964-.483-.116-.838-.193-2.073-.206-1.585-.016-2.927.005-3.687.377-.505.248-.895.8-.657.83.293.04.958.18 1.31.66.456.62.44 2.01.44 2.01s.261 3.832-.611 4.308c-.599.327-1.42-.34-3.184-3.387-.903-1.561-1.586-3.287-1.586-3.287s-.131-.322-.366-.494c-.285-.21-.682-.276-.682-.276l-4.222.028s-.634.017-.866.293c-.207.245-.017.752-.017.752s3.305 7.732 7.047 11.628c3.432 3.573 7.328 3.338 7.328 3.338Z" fill="#fff"/></svg>
